X: 21926
T: Kitchenpiper, The
R: hornpipe
M: 4/4
K: Dmajor
|:f2|AddA dddA|defd edBA|GggA ffAe|eBcB A2f2|
AddA dddA|defd edBA|gGBg fAdf|eddc d2:|
|:fg|aAff AddA|ffAf fAdd|GggA ffAe|eBcB A2 fg|
aAff AddA|ffAf fAdd|gGBg fAdf|eddc d2:|
|:z2|AddA dddA|dcde f2ed|g2ef- fdec|d2Bc- cee2|
AddA dddA|dcde f2ed|gGBg fAdf|eddc d2:|
|:fg|aAgg AffA|eeBd BgBA|GggA ffAe|
[1 eBcB A2fg|aAgg AffA|eeBd BgBA|gGBg fAdf|eddc d2:|
[2 eBcB A2f2|AddB eecf|fdgg afdA|GggA ffAe|eddc d2||

